animations/24/nm-stage01-connecting04.svg

<?xml version="1.0" encoding="UTF-8" standalone="no"?>
<!-- Created with Inkscape (http://www.inkscape.org/) -->

<svg
   xmlns:dc="http://purl.org/dc/elements/1.1/"
   xmlns:cc="http://creativecommons.org/ns#"
   xmlns:rdf="http://www.w3.org/1999/02/22-rdf-syntax-ns#"
   xmlns:svg="http://www.w3.org/2000/svg"
   xmlns="http://www.w3.org/2000/svg"
   xmlns:inkscape="http://www.inkscape.org/namespaces/inkscape"
   version="1.0"
   width="24"
   height="24"
   id="svg3315">
  <metadata
     id="metadata30">
    <rdf:RDF>
      <cc:Work
         rdf:about="">
        <dc:format>image/svg+xml</dc:format>
        <dc:type
           rdf:resource="http://purl.org/dc/dcmitype/StillImage" />
      </cc:Work>
    </rdf:RDF>
  </metadata>
  <defs
     id="defs3317" />
  <path
     d="m 8.5004524,12.493762 -5.0004524,0"
     inkscape:connector-curvature="0"
     id="path3279"
     style="opacity:0.2;fill:none;stroke:#878787;stroke-width:1px;stroke-linecap:round;stroke-linejoin:miter;stroke-opacity:1" />
  <path
     d="m 21.512477,12.493761 -5.002717,1e-6"
     inkscape:connector-curvature="0"
     id="path3281"
     style="fill:none;stroke:#878787;stroke-width:1px;stroke-linecap:round;stroke-linejoin:miter;stroke-opacity:1" />
  <path
     d="m 8.6369473,13.530536 -4.830067,1.294212"
     inkscape:connector-curvature="0"
     id="path2629"
     style="opacity:0.175;fill:none;stroke:#878787;stroke-width:1px;stroke-linecap:round;stroke-linejoin:miter;stroke-opacity:1" />
  <path
     d="m 21.205597,10.162775 -4.832253,1.294799"
     inkscape:connector-curvature="0"
     id="path2631"
     style="opacity:0.875;fill:none;stroke:#878787;stroke-width:1px;stroke-linecap:round;stroke-linejoin:miter;stroke-opacity:1" />
  <path
     d="m 9.0371263,14.496655 -4.330519,2.500226"
     inkscape:connector-curvature="0"
     id="path3403"
     style="opacity:0.15;fill:none;stroke:#878787;stroke-width:1px;stroke-linecap:round;stroke-linejoin:miter;stroke-opacity:1" />
  <path
     d="M 20.30587,7.9906423 15.97339,10.492001"
     inkscape:connector-curvature="0"
     id="path3405"
     style="opacity:0.75;fill:none;stroke:#878787;stroke-width:1px;stroke-linecap:round;stroke-linejoin:miter;stroke-opacity:1" />
  <path
     d="M 9.6737213,15.32628 6.1378656,18.862134"
     inkscape:connector-curvature="0"
     id="path3407"
     style="opacity:0.125;fill:none;stroke:#878787;stroke-width:1px;stroke-linecap:round;stroke-linejoin:miter;stroke-opacity:1" />
  <path
     d="M 18.874611,6.1253893 15.337155,9.6628442"
     inkscape:connector-curvature="0"
     id="path3409"
     style="opacity:0.675;fill:none;stroke:#878787;stroke-width:1px;stroke-linecap:round;stroke-linejoin:miter;stroke-opacity:1" />
  <path
     d="M 10.503346,15.962875 8.0031195,20.293393"
     inkscape:connector-curvature="0"
     id="path3415"
     style="opacity:0.1;fill:none;stroke:#878787;stroke-width:1px;stroke-linecap:round;stroke-linejoin:miter;stroke-opacity:1" />
  <path
     d="M 17.009358,4.6941302 14.508,9.0266101"
     inkscape:connector-curvature="0"
     id="path3417"
     style="opacity:0.6;fill:none;stroke:#878787;stroke-width:1px;stroke-linecap:round;stroke-linejoin:miter;stroke-opacity:1" />
  <path
     d="M 11.469467,16.363054 10.175253,21.19312"
     inkscape:connector-curvature="0"
     id="path3419"
     style="opacity:0.075;fill:none;stroke:#878787;stroke-width:1px;stroke-linecap:round;stroke-linejoin:miter;stroke-opacity:1" />
  <path
     d="M 14.837225,3.7944033 13.542427,8.6266572"
     inkscape:connector-curvature="0"
     id="path3421"
     style="opacity:0.55;fill:none;stroke:#878787;stroke-width:1px;stroke-linecap:round;stroke-linejoin:miter;stroke-opacity:1" />
  <path
     d="m 12.506239,16.499547 -1e-6,5.000452"
     inkscape:connector-curvature="0"
     id="path3423"
     style="opacity:0.05;fill:none;stroke:#878787;stroke-width:1px;stroke-linecap:round;stroke-linejoin:miter;stroke-opacity:1" />
  <path
     d="m 12.506238,3.4875227 1e-6,5.0027175"
     inkscape:connector-curvature="0"
     id="path3425"
     style="opacity:0.5;fill:none;stroke:#878787;stroke-width:1px;stroke-linecap:round;stroke-linejoin:miter;stroke-opacity:1" />
  <path
     d="m 13.543013,16.363052 1.294212,4.830067"
     inkscape:connector-curvature="0"
     id="path3427"
     style="opacity:0.025;fill:none;stroke:#878787;stroke-width:1px;stroke-linecap:round;stroke-linejoin:miter;stroke-opacity:1" />
  <path
     d="m 10.175253,3.7944029 1.294798,4.832254"
     inkscape:connector-curvature="0"
     id="path3429"
     style="opacity:0.45;fill:none;stroke:#878787;stroke-width:1px;stroke-linecap:round;stroke-linejoin:miter;stroke-opacity:1" />
  <path
     d="M 8.0031186,4.69413 10.504478,9.0266098"
     inkscape:connector-curvature="0"
     id="path3433"
     style="opacity:0.4;fill:none;stroke:#878787;stroke-width:1px;stroke-linecap:round;stroke-linejoin:miter;stroke-opacity:1" />
  <path
     d="M 6.1378671,6.1253893 9.6753232,9.6628445"
     inkscape:connector-curvature="0"
     id="path3437"
     style="opacity:0.35;fill:none;stroke:#878787;stroke-width:0.99999994px;stroke-linecap:round;stroke-linejoin:miter;stroke-opacity:1" />
  <path
     d="M 4.706607,7.9906417 9.0390878,10.492001"
     inkscape:connector-curvature="0"
     id="path2407"
     style="opacity:0.3;fill:none;stroke:#878787;stroke-width:1px;stroke-linecap:round;stroke-linejoin:miter;stroke-opacity:1" />
  <path
     d="M 3.8068809,10.162777 8.639135,11.457575"
     inkscape:connector-curvature="0"
     id="path2413"
     style="opacity:0.25;fill:none;stroke:#878787;stroke-width:1px;stroke-linecap:round;stroke-linejoin:miter;stroke-opacity:1" />
  <path
     d="M 21.205597,14.824747 16.373343,13.529949"
     inkscape:connector-curvature="0"
     id="path2401"
     style="opacity:0;fill:none;stroke:#878787;stroke-width:1px;stroke-linecap:round;stroke-linejoin:miter;stroke-opacity:1" />
  <path
     d="M 18.874611,18.862133 15.337155,15.324678"
     inkscape:connector-curvature="0"
     id="path2405"
     style="opacity:0;fill:none;stroke:#878787;stroke-width:1px;stroke-linecap:round;stroke-linejoin:miter;stroke-opacity:1" />
  <path
     d="M 20.30587,16.99688 15.973389,14.495523"
     inkscape:connector-curvature="0"
     id="path2410"
     style="opacity:0;fill:none;stroke:#878787;stroke-width:1px;stroke-linecap:round;stroke-linejoin:miter;stroke-opacity:1" />
  <path
     d="m 17.009358,20.293393 -2.501359,-4.33248"
     inkscape:connector-curvature="0"
     id="path2414"
     style="opacity:0;fill:none;stroke:#878787;stroke-width:1px;stroke-linecap:round;stroke-linejoin:miter;stroke-opacity:1" />
</svg>

<?xml version="1.0" encoding="UTF-8" standalone="no"?>
<!-- Created with Inkscape (http://www.inkscape.org/) -->
<svg
   xmlns:svg="http://www.w3.org/2000/svg"
   xmlns="http://www.w3.org/2000/svg"
   version="1.0"
   width="24"
   height="24"
   id="svg3315">
  <defs
     id="defs3317" />
  <path
     d="M 8.5004524,12.493762 L 3.5,12.493762"
     id="path3279"
     style="opacity:0.2;fill:none;stroke:#878787;stroke-width:1px;stroke-linecap:round;stroke-linejoin:miter;stroke-opacity:1" />
  <path
     d="M 21.512477,12.493761 L 16.50976,12.493762"
     id="path3281"
     style="fill:none;stroke:#878787;stroke-width:1px;stroke-linecap:round;stroke-linejoin:miter;stroke-opacity:1" />
  <path
     d="M 8.6369473,13.530536 L 3.8068803,14.824748"
     id="path2629"
     style="opacity:0.175;fill:none;stroke:#878787;stroke-width:1px;stroke-linecap:round;stroke-linejoin:miter;stroke-opacity:1" />
  <path
     d="M 21.205597,10.162775 L 16.373344,11.457574"
     id="path2631"
     style="opacity:0.875;fill:none;stroke:#878787;stroke-width:1px;stroke-linecap:round;stroke-linejoin:miter;stroke-opacity:1" />
  <path
     d="M 9.0371263,14.496655 L 4.7066073,16.996881"
     id="path3403"
     style="opacity:0.15;fill:none;stroke:#878787;stroke-width:1px;stroke-linecap:round;stroke-linejoin:miter;stroke-opacity:1" />
  <path
     d="M 20.30587,7.9906423 L 15.97339,10.492001"
     id="path3405"
     style="opacity:0.75;fill:none;stroke:#878787;stroke-width:1px;stroke-linecap:round;stroke-linejoin:miter;stroke-opacity:1" />
  <path
     d="M 9.6737213,15.32628 L 6.1378656,18.862134"
     id="path3407"
     style="opacity:0.125;fill:none;stroke:#878787;stroke-width:1px;stroke-linecap:round;stroke-linejoin:miter;stroke-opacity:1" />
  <path
     d="M 18.874611,6.1253893 L 15.337155,9.6628442"
     id="path3409"
     style="opacity:0.675;fill:none;stroke:#878787;stroke-width:1px;stroke-linecap:round;stroke-linejoin:miter;stroke-opacity:1" />
  <path
     d="M 10.503346,15.962875 L 8.0031195,20.293393"
     id="path3415"
     style="opacity:0.1;fill:none;stroke:#878787;stroke-width:1px;stroke-linecap:round;stroke-linejoin:miter;stroke-opacity:1" />
  <path
     d="M 17.009358,4.6941302 L 14.508,9.0266101"
     id="path3417"
     style="opacity:0.6;fill:none;stroke:#878787;stroke-width:1px;stroke-linecap:round;stroke-linejoin:miter;stroke-opacity:1" />
  <path
     d="M 11.469467,16.363054 L 10.175253,21.19312"
     id="path3419"
     style="opacity:0.075;fill:none;stroke:#878787;stroke-width:1px;stroke-linecap:round;stroke-linejoin:miter;stroke-opacity:1" />
  <path
     d="M 14.837225,3.7944033 L 13.542427,8.6266572"
     id="path3421"
     style="opacity:0.55;fill:none;stroke:#878787;stroke-width:1px;stroke-linecap:round;stroke-linejoin:miter;stroke-opacity:1" />
  <path
     d="M 12.506239,16.499547 L 12.506238,21.499999"
     id="path3423"
     style="opacity:0.05;fill:none;stroke:#878787;stroke-width:1px;stroke-linecap:round;stroke-linejoin:miter;stroke-opacity:1" />
  <path
     d="M 12.506238,3.4875227 L 12.506239,8.4902402"
     id="path3425"
     style="opacity:0.5;fill:none;stroke:#878787;stroke-width:1px;stroke-linecap:round;stroke-linejoin:miter;stroke-opacity:1" />
  <path
     d="M 13.543013,16.363052 L 14.837225,21.193119"
     id="path3427"
     style="opacity:0.025;fill:none;stroke:#878787;stroke-width:1px;stroke-linecap:round;stroke-linejoin:miter;stroke-opacity:1" />
  <path
     d="M 10.175253,3.7944029 L 11.470051,8.6266569"
     id="path3429"
     style="opacity:0.45;fill:none;stroke:#878787;stroke-width:1px;stroke-linecap:round;stroke-linejoin:miter;stroke-opacity:1" />
  <path
     d="M 8.0031186,4.69413 L 10.504478,9.0266098"
     id="path3433"
     style="opacity:0.4;fill:none;stroke:#878787;stroke-width:1px;stroke-linecap:round;stroke-linejoin:miter;stroke-opacity:1" />
  <path
     d="M 6.1378671,6.1253893 L 9.6753232,9.6628445"
     id="path3437"
     style="opacity:0.35;fill:none;stroke:#878787;stroke-width:0.99999994px;stroke-linecap:round;stroke-linejoin:miter;stroke-opacity:1" />
  <path
     d="M 4.706607,7.9906417 L 9.0390878,10.492001"
     id="path2407"
     style="opacity:0.3;fill:none;stroke:#878787;stroke-width:1px;stroke-linecap:round;stroke-linejoin:miter;stroke-opacity:1" />
  <path
     d="M 3.8068809,10.162777 L 8.639135,11.457575"
     id="path2413"
     style="opacity:0.25;fill:none;stroke:#878787;stroke-width:1px;stroke-linecap:round;stroke-linejoin:miter;stroke-opacity:1" />
  <path
     d="M 21.205597,14.824747 L 16.373343,13.529949"
     id="path2401"
     style="opacity:0;fill:none;stroke:#878787;stroke-width:1px;stroke-linecap:round;stroke-linejoin:miter;stroke-opacity:1" />
  <path
     d="M 18.874611,18.862133 L 15.337155,15.324678"
     id="path2405"
     style="opacity:0;fill:none;stroke:#878787;stroke-width:1px;stroke-linecap:round;stroke-linejoin:miter;stroke-opacity:1" />
  <path
     d="M 20.30587,16.99688 L 15.973389,14.495523"
     id="path2410"
     style="opacity:0;fill:none;stroke:#878787;stroke-width:1px;stroke-linecap:round;stroke-linejoin:miter;stroke-opacity:1" />
  <path
     d="M 17.009358,20.293393 L 14.507999,15.960913"
     id="path2414"
     style="opacity:0;fill:none;stroke:#878787;stroke-width:1px;stroke-linecap:round;stroke-linejoin:miter;stroke-opacity:1" />
</svg>
